X:23
T:Reel au ralenti
C:Andr\'e Brunet
Z:robin.beech@mcgill.ca
S:Brunet et Beaudry
M:4/4
L:1/8
K:F
f2cf dcBG | cAAA BAGB | A3A CFAF | GFEF Gcde | 
f2cf dcBd | cAAA BAGB | A3c dcBA |1 GFEF G/F/EFG :|2 GFEF G/F/EF^F |:
G3G GABc | AFAF DFCA | GFEF GABc | AFEF FEF^F |
G3G GABc | AFAF DFCA | GFEF GABc |1 dfeg fdcA :|2 dfeg fcde |]

